X:15259
T:Shamrock Hill
C:Sean Ryan (-1985)
R:reel
D:Sean Smyth: The Blue Fiddle
Z:id:hn-reel-580
M:C|
K:G
DGBG dGBG|~c3d efga|bg~g2 agef|gedB AGEG|
DGBG dGBG|~c3d efga|bg~g2 aged|1 cAFA ~G3E:|2 cAFA G2ga||
|:bg~g2 agef|gedB AGEG|DB,~B,2 DEGA|Bdgb ageg|
bg~g2 agef|gedB AGEG|DB,~B,2 DEGA|1 BdAF G2ga:|2 BdAF ~G3E||
